X:1
T:Title
%%score { 1 | 2 }
L:1/8
M:4/2
K:Eb
V:1 treble nm="Grand Piano"
V:2 bass 
V:1
 z8 z4[Q:1/4=196] B4 | E4 F4 G4 [CEA]4 | [DFB]12 [B,EG]4 | [Ec]4 [DB]4 [CEA]4 [B,FB]4 | %4
[M:6/4] [B,EG]12 |[M:2/4] [B,DB]4 |[M:8/4] [G,CE]4 [B,DF]4 [B,EG]4 [CEA]4 | [DFB]12 [B,EG]4 | %8
 [Ec]4 [B,EB]4 [CEA]4 [B,DF]4 |[M:6/4] [G,E]12 |[M:2/4] [Ec]4 |[M:8/4] [Ge]4 [Fd]4 [Gc]4 A4 | %12
 G12 E4 | B4 A4 G4 [DF]4 |[M:6/4] E12 |] %15
V:2
 z8 z4 [E,G,E]4 | [G,B,]4 [F,A,D]4 [E,B,E]4 C,4 | B,,12 E,4 | [A,,A,]4 [B,,F,]4 C,4 D,4 | %4
[M:6/4] E,12 |[M:2/4] B,,4 |[M:8/4] C,4 B,,4 E,4 C,4 | B,,12 E,4 | [A,,A,]4 G,,4 A,,4 B,,4 | %9
[M:6/4] E,12 |[M:2/4] [C,C]4 |[M:8/4] [C,C]4 [D,=B,]4 [E,C]4 [F,CF]4 | [G,=B,D]12 [A,C]4 | %13
 [G,B,E]4 [A,CE]4 [B,E]4 [B,,B,]4 |[M:6/4] [E,G,]12 |] %15

